images/ICONOS/EXPERIENCIA/INDICADORES ICON.svg

<svg width="45" height="45" viewBox="0 0 45 45" fill="none" xmlns="http://www.w3.org/2000/svg">
<path d="M0 21.0983C0.111376 20.2887 0.195787 19.4756 0.337645 18.6718C1.91684 9.74851 8.42354 2.67056 17.2762 0.662347C25.9799 -1.31189 33.4433 1.14975 39.4494 7.74615C42.6582 11.2705 44.4671 15.5037 44.8927 20.2465C45.5457 27.5307 43.2162 33.7744 37.9452 38.8547C34.4785 42.1962 30.2825 44.1142 25.5203 44.802C24.9869 44.8793 24.4511 44.9344 23.9165 45C22.9786 45 22.0407 45 21.1028 45C21.0055 44.9754 20.9105 44.9344 20.8121 44.9274C18.9046 44.7914 17.0358 44.4411 15.2433 43.7768C7.06827 40.7516 2.10794 34.9543 0.356403 26.4223C0.186408 25.5951 0.116065 24.748 0 23.9103C0 22.9729 0 22.0356 0 21.0983ZM43.5163 22.0661C43.3522 10.6026 33.7528 1.35128 22.1826 1.50711C10.5772 1.66177 1.28962 11.2365 1.51471 22.9378C1.73746 34.55 11.2923 43.7346 22.9646 43.4886C34.5441 43.2449 43.7192 33.6865 43.5163 22.0661Z" fill="url(#paint0_linear_1_1959)"/>
<path d="M22.9294 42.0006C12.0649 42.1634 3.15253 33.5905 2.99777 22.8265C2.84302 12.0508 11.453 3.16265 22.1955 3.00682C33.0353 2.84982 41.8785 11.4931 42.0204 22.3813C42.1576 32.9296 33.4843 41.8424 22.9294 42.0006ZM4.56524 23.2565C4.64379 28.4985 7.57708 35.0714 14.1494 38.4013C20.7241 41.7323 27.1816 41.246 33.1701 36.9519C37.7904 33.6385 40.12 28.9636 40.5092 23.2565C40.2606 23.2565 40.1 23.2565 39.9406 23.2565C37.9628 23.2565 35.985 23.2577 34.0072 23.2565C32.4292 23.2553 31.6378 22.5687 31.3834 21.0175C31.2017 19.9138 30.8277 18.878 30.2122 17.8891C30.0973 18.0614 30.007 18.1926 29.9214 18.3262C29.1207 19.5681 28.3493 20.8312 27.5122 22.0473C26.8076 23.0702 26.0971 24.1048 25.2648 25.021C23.3948 27.0796 20.077 26.4621 19.0371 23.915C18.4087 22.3777 18.7944 20.6566 20.1907 19.5716C21.7371 18.3707 23.3761 17.2881 24.9892 16.1738C25.6727 15.7017 26.3926 15.281 27.1288 14.8159C26.9928 14.7292 26.899 14.6612 26.7994 14.605C21.4475 11.6091 14.5328 14.9987 13.6277 21.0608C13.4097 22.5183 12.5667 23.2518 11.0966 23.2553C9.71902 23.2588 8.34265 23.2565 6.9651 23.2565C6.17492 23.2565 5.38473 23.2565 4.56524 23.2565ZM21.7347 4.56746C17.8999 4.58269 13.1963 6.44679 10.4248 9.22829C12.1787 10.9823 13.9325 12.7362 15.7099 14.5136C17.4192 13.0678 19.4462 12.2453 21.7347 12.0321C21.7347 9.53058 21.7347 7.06425 21.7347 4.56746ZM9.22545 10.3625C6.33084 13.5892 4.75048 17.3619 4.52655 21.7111C4.6391 21.7322 4.68131 21.7474 4.72469 21.7474C6.90765 21.7497 9.08945 21.7544 11.2724 21.7474C11.807 21.7451 12.0427 21.5049 12.1271 20.9425C12.4073 19.0772 13.1506 17.4158 14.33 15.9454C14.4097 15.847 14.48 15.7403 14.5293 15.6724C12.752 13.8926 11.0051 12.1434 9.22545 10.3625ZM23.2987 4.52763C23.2987 7.06894 23.2987 9.54698 23.2987 12.0367C25.1581 12.209 26.8404 12.7889 28.3762 13.7989C28.4818 13.868 28.7115 13.8364 28.8382 13.7684C29.4935 13.4134 30.0961 12.9026 30.7902 12.6987C31.3564 12.5335 31.7281 12.2312 32.1044 11.854C32.5487 11.4076 32.9919 10.96 33.4409 10.5183C33.8536 10.1105 34.2733 9.70984 34.7188 9.27868C31.4303 6.34134 27.6693 4.76547 23.2987 4.52763ZM35.7517 10.3168C34.8255 11.2471 33.9404 12.141 33.0493 13.028C32.7211 13.3549 32.3635 13.6489 32.3635 14.182C32.3635 14.3402 32.2416 14.5066 32.1548 14.6566C31.8899 15.1112 31.6366 15.5751 31.3353 16.0051C31.1184 16.3144 31.1278 16.5382 31.34 16.8569C32.1443 18.0649 32.639 19.4029 32.8758 20.8335C32.9989 21.5798 33.1865 21.7497 33.9427 21.7497C35.9779 21.7509 38.012 21.7509 40.0473 21.7497C40.1868 21.7497 40.3263 21.7333 40.4975 21.7228C40.2524 17.3549 38.6885 13.5939 35.7517 10.3168ZM30.3728 14.755C30.347 14.7304 30.3201 14.7046 30.2943 14.68C30.245 14.7011 30.1911 14.7151 30.1465 14.7433C27.4794 16.4609 24.8075 18.1703 22.1533 19.9079C21.6679 20.2254 21.2189 20.6203 20.8238 21.0456C20.1661 21.7509 20.0899 22.7831 20.5612 23.6138C21.0243 24.4305 21.9223 24.8534 22.8637 24.7199C23.6738 24.6051 24.2014 24.0848 24.641 23.4686C25.5672 22.1715 26.4969 20.8769 27.3692 19.5447C28.402 17.9676 29.3751 16.3519 30.3728 14.755Z" fill="url(#paint1_linear_1_1959)"/>
<path d="M16.8131 32.2548C17.6244 33.062 18.404 33.8131 19.1496 34.5957C19.3243 34.7797 19.4896 35.0843 19.465 35.3128C19.4416 35.5354 19.2047 35.8471 18.9972 35.9091C18.7686 35.9783 18.3958 35.8927 18.2106 35.7311C17.6513 35.2413 17.1519 34.6824 16.513 34.1751C16.513 34.5114 16.5258 34.8488 16.5106 35.1839C16.4836 35.7662 16.0534 36.1107 15.5493 35.9595C15.1987 35.8541 15.0182 35.6045 15.0182 35.2413C15.0147 33.2507 15.0111 31.2612 15.0205 29.2717C15.0229 28.816 15.3441 28.5043 15.7544 28.5031C16.1589 28.502 16.4719 28.8101 16.5094 29.2647C16.5235 29.4393 16.5141 29.6162 16.5153 29.7908C16.5153 29.963 16.5153 30.1364 16.5153 30.4352C17.0534 29.8974 17.5118 29.4393 17.9714 28.9812C18.5177 28.4364 18.9187 28.359 19.2856 28.7293C19.6514 29.0972 19.574 29.5014 19.03 30.0439C18.3067 30.7656 17.5822 31.4885 16.8131 32.2548Z" fill="url(#paint2_linear_1_1959)"/>
<path d="M22.5097 32.9882C22.5097 33.7451 22.5132 34.4165 22.5085 35.0878C22.505 35.649 22.2306 35.9841 21.7769 35.997C21.3103 36.0099 21.0137 35.6596 21.0125 35.0796C21.0102 33.1933 21.0102 31.3081 21.0125 29.4217C21.0137 28.7796 21.2775 28.502 21.9094 28.4985C22.4639 28.4949 23.0267 28.4668 23.573 28.5406C24.7759 28.7023 25.5637 29.7041 25.4992 30.9132C25.4406 32.0216 24.5414 32.9086 23.3843 32.9859C23.1111 33.0046 22.8344 32.9882 22.5097 32.9882ZM22.5284 31.4991C23.0501 31.4545 23.6211 31.6771 23.8954 31.096C23.9939 30.8886 23.9716 30.5242 23.8474 30.3309C23.532 29.8412 23.0068 30.0204 22.5284 30.004C22.5284 30.5184 22.5284 30.9788 22.5284 31.4991Z" fill="url(#paint3_linear_1_1959)"/>
<path d="M28.504 32.2923C28.504 33.2284 28.5076 34.1646 28.5029 35.1007C28.5005 35.6608 28.2168 35.9959 27.7631 35.997C27.3106 35.9982 27.0081 35.6561 27.0069 35.1066C27.0022 33.205 27.0022 31.3034 27.0069 29.4006C27.0081 28.8523 27.3094 28.5031 27.7572 28.5008C28.2074 28.4985 28.5005 28.8406 28.5029 29.3936C28.5076 30.3602 28.504 31.3268 28.504 32.2923Z" fill="url(#paint4_linear_1_1959)"/>
<defs>
<linearGradient id="paint0_linear_1_1959" x1="0" y1="45.001" x2="45" y2="45.001" gradientUnits="userSpaceOnUse">
<stop stop-color="#1723FF"/>
<stop offset="1" stop-color="#30E35E"/>
</linearGradient>
<linearGradient id="paint1_linear_1_1959" x1="0" y1="45.001" x2="45" y2="45.001" gradientUnits="userSpaceOnUse">
<stop stop-color="#1723FF"/>
<stop offset="1" stop-color="#30E35E"/>
</linearGradient>
<linearGradient id="paint2_linear_1_1959" x1="0" y1="45.001" x2="45" y2="45.001" gradientUnits="userSpaceOnUse">
<stop stop-color="#1723FF"/>
<stop offset="1" stop-color="#30E35E"/>
</linearGradient>
<linearGradient id="paint3_linear_1_1959" x1="0" y1="45.001" x2="45" y2="45.001" gradientUnits="userSpaceOnUse">
<stop stop-color="#1723FF"/>
<stop offset="1" stop-color="#30E35E"/>
</linearGradient>
<linearGradient id="paint4_linear_1_1959" x1="0" y1="45.001" x2="45" y2="45.001" gradientUnits="userSpaceOnUse">
<stop stop-color="#1723FF"/>
<stop offset="1" stop-color="#30E35E"/>
</linearGradient>
</defs>
</svg>

<svg xmlns="http://www.w3.org/2000/svg" width="45" height="45" fill="none"><path fill="url(#a)" d="M0 21.098c.111-.81.196-1.622.338-2.426C1.917 9.749 8.424 2.67 17.276.662c8.704-1.974 16.167.488 22.173 7.084 3.21 3.524 5.018 7.758 5.444 12.5.653 7.285-1.677 13.528-6.948 18.609-3.467 3.341-7.663 5.26-12.425 5.947-.533.077-1.069.132-1.604.198h-2.813c-.098-.025-.193-.066-.29-.073-1.908-.136-3.777-.486-5.57-1.15C7.068 40.752 2.108 34.954.356 26.422c-.17-.827-.24-1.674-.356-2.512v-2.812Zm43.516.968c-.164-11.463-9.763-20.715-21.333-20.559-11.606.155-20.893 9.73-20.668 21.43.222 11.613 9.777 20.798 21.45 20.552 11.58-.244 20.754-9.802 20.551-21.423Z"/><path fill="url(#b)" d="M22.93 42c-10.865.163-19.777-8.41-19.932-19.174-.155-10.775 8.455-19.663 19.197-19.82 10.84-.156 19.684 8.487 19.825 19.375.138 10.549-8.536 19.461-19.09 19.62ZM4.564 23.257c.079 5.242 3.012 11.815 9.584 15.145 6.575 3.331 13.033 2.845 19.021-1.45 4.62-3.313 6.95-7.987 7.34-13.695h-.57c-1.977 0-3.955.002-5.933 0-1.578 0-2.37-.687-2.624-2.239a8.413 8.413 0 0 0-1.17-3.128c-.116.172-.206.304-.292.437-.8 1.242-1.572 2.505-2.409 3.721-.704 1.023-1.415 2.058-2.247 2.974-1.87 2.059-5.188 1.441-6.228-1.106-.628-1.537-.243-3.258 1.154-4.343 1.546-1.201 3.185-2.284 4.798-3.398.684-.472 1.404-.893 2.14-1.358-.136-.087-.23-.155-.33-.211-5.351-2.996-12.266.394-13.171 6.456-.218 1.457-1.061 2.19-2.531 2.194-1.378.004-2.754.002-4.132.002h-2.4Zm17.17-18.689c-3.835.016-8.539 1.88-11.31 4.661l5.285 5.286c1.71-1.446 3.736-2.269 6.025-2.482V4.567Zm-12.51 5.796C6.331 13.588 4.75 17.361 4.527 21.71c.112.021.154.036.198.036 2.183.003 4.364.007 6.547 0 .535-.002.77-.242.855-.805.28-1.865 1.024-3.526 2.203-4.997.08-.098.15-.205.2-.273l-5.305-5.31ZM23.3 4.528v7.509c1.86.172 3.541.752 5.077 1.762.106.069.335.037.462-.03.655-.356 1.258-.866 1.952-1.07.566-.165.938-.468 1.314-.845.445-.446.888-.894 1.337-1.336.413-.408.832-.808 1.278-1.24-3.289-2.937-7.05-4.513-11.42-4.75Zm12.453 5.789c-.927.93-1.812 1.824-2.703 2.711-.328.327-.685.62-.685 1.154 0 .158-.122.325-.21.475-.264.454-.517.918-.819 1.348-.217.31-.207.533.005.852.804 1.208 1.299 2.546 1.536 3.977.123.746.31.916 1.067.916h6.104c.14 0 .28-.017.45-.027-.245-4.368-1.809-8.13-4.745-11.406Zm-5.38 4.438-.078-.075c-.049.021-.103.035-.148.063-2.667 1.718-5.338 3.427-7.993 5.165a7.285 7.285 0 0 0-1.33 1.138c-.657.705-.733 1.737-.262 2.568.463.816 1.361 1.24 2.303 1.106.81-.115 1.337-.635 1.777-1.251.926-1.297 1.856-2.592 2.728-3.924 1.033-1.577 2.006-3.193 3.004-4.79Z"/><path fill="url(#c)" d="M16.813 32.255c.811.807 1.591 1.558 2.337 2.34.174.185.34.49.315.718-.023.222-.26.534-.468.596-.228.07-.601-.016-.786-.178-.56-.49-1.06-1.049-1.698-1.556 0 .336.013.674-.002 1.009-.027.582-.458.927-.962.776-.35-.106-.53-.355-.53-.719-.004-1.99-.008-3.98.002-5.97.002-.455.323-.767.733-.768.405-.001.718.307.755.762.014.174.005.351.006.526v.644l1.456-1.454c.547-.545.948-.622 1.315-.252.365.368.288.772-.256 1.315l-2.217 2.21Z"/><path fill="url(#d)" d="M22.51 32.988c0 .757.003 1.428-.002 2.1-.003.561-.277.896-.731.909-.467.013-.763-.337-.765-.917-.002-1.887-.002-3.772 0-5.658.002-.642.265-.92.897-.924.555-.003 1.118-.031 1.664.043 1.203.161 1.99 1.163 1.926 2.372-.058 1.109-.958 1.996-2.115 2.073-.273.019-.55.002-.874.002Zm.018-1.489c.522-.044 1.093.178 1.367-.403.099-.207.077-.572-.048-.765-.315-.49-.84-.31-1.319-.327v1.495Z"/><path fill="url(#e)" d="M28.504 32.292c0 .936.004 1.873-.001 2.809-.003.56-.286.895-.74.896-.452.001-.755-.34-.756-.89-.005-1.902-.005-3.804 0-5.706.001-.549.302-.898.75-.9.45-.003.743.34.746.893.005.966.001 1.933.001 2.898Z"/><defs><linearGradient id="a" x1="0" x2="45" y1="45.001" y2="45.001" gradientUnits="userSpaceOnUse"><stop stop-color="#1723FF"/><stop offset="1" stop-color="#30E35E"/></linearGradient><linearGradient id="b" x1="0" x2="45" y1="45.001" y2="45.001" gradientUnits="userSpaceOnUse"><stop stop-color="#1723FF"/><stop offset="1" stop-color="#30E35E"/></linearGradient><linearGradient id="c" x1="0" x2="45" y1="45.001" y2="45.001" gradientUnits="userSpaceOnUse"><stop stop-color="#1723FF"/><stop offset="1" stop-color="#30E35E"/></linearGradient><linearGradient id="d" x1="0" x2="45" y1="45.001" y2="45.001" gradientUnits="userSpaceOnUse"><stop stop-color="#1723FF"/><stop offset="1" stop-color="#30E35E"/></linearGradient><linearGradient id="e" x1="0" x2="45" y1="45.001" y2="45.001" gradientUnits="userSpaceOnUse"><stop stop-color="#1723FF"/><stop offset="1" stop-color="#30E35E"/></linearGradient></defs></svg>
